!!!COM: Johanna Kinkel
!!!CNT: Deutsch
!!!TXO: Deutsch
!!!OTL: Wolle Keiner Mich Fragen
!!!LYR: Geibel
!!!OPR: Sechs Lieder
!!!OPS: Op. 18
!!!ONM: No. 5
!!!ENC: Ben Fuhrman
!!!YOR: Johanna Kinkel: Lieder, volume 1 Poetry by Geibel and Goethe
!!!YOR: Bryn Mawr, Fildegard Publishing CO, 2000
!!!ODT: 1843
!!NB: Only vocal melody encoded.
!!NB: First instance of melodic material only encoded.
!!created: 2/23/10 3:05PM
!!proofed and posted: 2/23/10 3:05PM
**kern	**silbe
*clef G2	*
*k[]	*
*M4/4	*
*MM[Agitato]	*
=6	=6
{4.b	{Wol-
8b	-le
(4b	Kei-
ccq	|
bq	-ner
8a)	|
8b	mich
=7	=7
(4.cc	fra-
8b)	|
4a}	-gen}
4r	.
=8	=8
4r	.
8r	.
{8b	{wa-
4.f	-rum
8e	mein
=9	=9
4.a	Herz
8b	so
4cc}	schla2gt,}
8r	.
{8a	{ich
=10	=10
(4a	kann's
8f)	|
8cc	nicht
4cc	fas-
8a	-sen,
8ff	nicht
=11	=11
2ff	sa-
4dd}	-gen,}
4r	.
=12	=12
{2b-	{was
4.g#	mich
8g#	be-
=13	=13
2a}	-wegt.}
2r	.
!! The following split measure, and all subsequent ones are due to the use of pickups in a split measure 5 that are the beginnings of phrases in verses 3 - 5. This is the only way I found to encode these abnormal measures wihtout screwing up the order in the first spine. -Fuhrman
=	=
*M3/8	*
4.r	.
=14	=14
*M4/4	*
{4b	{Als
8b	wie
8b	im
(4b	Trau-
ccq	|
bq	|
8a)	|
8b	-me
=15	=15
(4.cc	schwan-
8b)	|
4a}	-ken}
4r	.
=16	=16
{2b	{trun-
4.f	-ken
8e	die
=17	=17
4.a	Sin
8b	-ne
4cc}	mir;}
4r	.
=18	=18
{(4a	{Al-
8f)	|
8cc	-le
4cc	mei-
8a	-ne
8ff	Ge-
=19	=19
2ff	-dan-
4dd}	-ken}
4r	.
=20	=20
{2b-	{sind
4.g#	nur
8g#	bei-
=21	=21
2a}	-dir.}
2r	.
=	=
*M3/8	*
8r	.
{4a	{Ich
=22	=22
*M4/4	*
4b	ha-
8b	-be
8b	die
(4b	Welt
ccq	|
bq	|
8a)	|
8b	ver-
=23	=23
(4.cc	-ge-
8b)	|
4a}	-ssen}
4r	.
=24	=24
{2b	{seit
4f	ich
4e	dein
=25	=25
4a	Au-
8a	-ge
8b	ge-
4cc}	-sehn;}
8r	.
{8a	{ich
=26	=26
(4a	mo2ch-
8f)	-te
8cc	dich
(4cc	an
8a)	|
8ff	mich
=27	=27
2ff	pre-
4dd}	-ssen}
8r	.
{8dd	{und
=28	=28
4b-	still
8r	.
8b-	im
4.g#	Kuss
8g#	ver-
=29	=29
2a}	-gehn.}
2r	.
=	=
*M3/8	*
8r	.
{4a	{Main
=30	=30
*M4/4	*
4.b	Le-
8b	-ben
(4b	mo2cht'
ccq	|
bq	|
8a)	|
8b	ich
=31	=31
(4.cc	la-
8b)	|
4a}	-ssen}
4r	.
=32	=32
{2b	{ach,
4f	um
4e	ein
=33	=33
4a	La2-
8a	-cheln
8b	von
4cc}	dir,}
8r	.
{8a	{und
=34	=34
(4a	du
8f)	|
8cc	ich
(4cc	kann's
8a)	|
8ff	nicht
=35	=35
2ff	fa-
4dd}	-ssen}
4r	.
=36	=36
{4b-	{Du
8r	.
8b-	ver-
4.g#	-sagst
8g#	es
=37	=37
2a}	mir.}
2r	.
=	=
*M3/8	*
8r	.
{4a	{Ist's
=38	=38
*M4/4	*
4cc	Schick-
4b	-sal,
4r	.
8b	ist's
8b	dein
=39	=39
4cc	Wil-
4a}	-le,}
2r	.
=40	=40
4r	.
{4b	{Du
4.f	siehst
8e	mich
=41	=41
4a}	nicht;}
4r	.
4r	.
{4a	{nun
=42	=42
(4a	wein'
8f)	|
8cc	ich
(4cc	stil-
8a)	|
8f	-le,
=43	=43
4f	stil-
4d}	-le,}
2r	.
=44	=44
{4b-	{bis
8b-	mir
8b-	das
4.g#	Herz
8g#	zer-
=45	=45
2a}	-bricht.}
2r	.
==	==
*-	*-
